X: 1341
T: the Boys of Galway   #2
O: Early
R: reel
%S: s:2 b:16(8+8)
%S: s:4 b:16(4+4+4+4)
B: O'Neill's 1850 #1341
Z: Trish O'Neil
Z: Compacted via repeats and multiple endings [JC]
M: C|
L: 1/8
K: C
B |\
   cded cBAG | Addc dcAB |\
[1 cded cBAG | AcGE EDD :|\
[2 cABG AFGE | FDGF ECC |]
f |:\
   gage {d}cBcd | ea{b}ag agef |\
[1 gage {d}cBcd | eaag edde :|\
[2 gefd ecdc | Bcdf ecc |]

